!!!OTL: J&auml;ger im gr&uuml;nen Wald (2-60) S. 187
!!!id: P0933
**kern
*clefG2
*k[f#]
*G:
{4d
=1
4.g
8f#
4e
4d
=2
4.e
8e
4d}
=3
{4d
=4
4g
4g
4a
4a
=5
4b
4dd
4a
4g
=6
2g}
4r
=7
{4g
=8
4f#
4a
4a
4d
=9
4g
4b
4b}
=10
{4dd
=11
4cc
4a
4a
4dd
=12
4b
4g
4g}
=13
{4d
=14
4g
4f#
4e
4d
=15
2e
4d}
=16
{4d
=17
2g
4a
4cc
=18
4b
4dd
2a
=19
2g}
4r
==
*-
!!!minrhy: 8
!!!meters: 2/2 ]  ZZ[6
!!!cut: J&auml;ger im gr&uuml;nen Wald (2-60) S. 187
!!!reg: Lothringen
!!!trd: PINCK, Louis: Verklingende Weisen, Bd 2, Metz 1928
!!!rhy1: X_  X_.XX_X_  X_.XX_
!!!rhy2: X_  X_X_X_X_  X_X_X_X_  X__0_
!!!key: P0933  08  G 2/2 ]  ZZ[6
!!!mod: HEPTATONIK IONISCH]  AMBITUS[8
!!!kad: -5131-51
!!!akz: 1-6_131_-71_43_1-6_131_
!!!fot: 'a__b__c__as"av_bv_
!!!for: 'a__b__bw_bw_c__d__
!!!fok: '^__^a_Va_\__^__^a_
!! PHRAS[AUFTAKTIG]
!!!fkt: J&auml;gerlied, Beischlaf
!! LOTH VKL
!! PR[31] 2K[16] 2G[25] 3K[0] 3G[0] 4A[0] 4Ü[0] 5A[0] 6K[0] 6G[0]
!! 7K[0] 7G[0] 8A[0] MEHR[0] SI[41] ABS[32] SR[41] SP[0]
!! ST[16] 2k[6] 2g[13] 3k[9] 3g[0] 4d[0] 4ü[0] 5d[0] 6k[0] 6g[0]
!! 7k[0] 7g[0] 8d[0] mehr[0] si[28] dm[+13] sr[19] sp[9]
!! 1F[6] 2F[59] 3F[26] 4F[0] LF[0] 2P[0] 3P[9] 4P[0] TRI[0] DF[4] AB[34]
!! TF[0] U3K[0] U3[0] U4[0] U4Ü[0] U5[0] U6K[0] U6[0] U7K[12] U7[3]
!! N1[33] N2K[0] N2[24] N3K[15] N3[0] N4[6] N4Ü[0] N5[6] N6K[0] N6[0]
!!!n7k: 0] N7[0] O1[0] O2K[0] O2[0] O3K[0] O3[0] HÖ[0
!!!RNB: symbol: &auml;      = a umlaut  (UTF-8: Å„)
!!!RNB: symbol: &uuml;  = u umlaut (UTF-8: Ã¼)
